X:2812
T:If Any of Those Children of Hunger Shall Cry
O:england
B:Joyce, P. W.; "Old Irish Folk Music and Songs"
R:song
H:  This is a song of the time of the American War of Independence.  I
H:learned it when a child from hearing it often sung: and two verses (with the
H:air) have remained in my memory.
W:If any of those children of hunger shall cry,
W:I hope you will relieve them, that are now standing by;
W:I hope you will relieve them from hunger thirst and cold,
W:While we are in America like jolly soldiers bold--
W:                               With a fal-lal-li-da.
W:
W:If any such news should come into this land
W:That we valiant soldiers are sunk in the sand,
W:Which causes many fair maidens' hearts for to weep,
W:Let them hope that our vessel will return o'er the deep--
W:                               With a fal-lal-li-da.
L:1/8
M:C
K:C
GF|EGcd cGEG|c2 c>c c3 d|e2 ee {e}g2 ec|
d2 d>d d3 f|ecce f2 ef|g2 G>G G2 ((3GAB)|
c2 Bc d2 gf|ecce f2 "Chorus"dB|d2 c>c c2||


